img/material/banners/archicad.svg

<svg width="102" height="27" viewBox="0 0 102 27" fill="none" xmlns="http://www.w3.org/2000/svg">
<path d="M8.90751 4.40981H6.47983V5.30383H7.86959V6.72498C7.37262 6.87679 6.86246 6.99909 6.29951 6.99909C4.57991 6.99909 3.37486 5.91109 3.37486 4.36764C3.37486 2.86215 4.5931 1.71511 6.16318 1.71511C7.03398 1.71511 7.91357 1.95126 8.76238 2.39405V1.39039C7.6233 0.930732 7.02958 0.800003 6.18077 0.800003C3.97738 0.800003 2.30176 2.3561 2.30176 4.39716C2.30176 6.42978 3.93341 7.91419 6.14998 7.91419C7.15712 7.91419 7.93996 7.74973 8.90751 7.34489V4.40981Z" fill="#2D3743"/>
<path d="M10.2224 0.892744V7.8256H11.2603L11.2559 4.8104H11.6913C12.2234 4.8104 12.6588 4.97908 13.6132 6.40023L14.5676 7.8256H15.8078C15.3108 7.16352 15.1305 6.93158 14.8226 6.45505C14.2729 5.59055 13.8683 4.94956 13.213 4.53207C13.987 4.23688 14.4224 3.63805 14.4224 2.83259C14.4224 1.63495 13.512 0.888527 12.0475 0.888527H10.2224V0.892744ZM11.1635 1.74459H11.832C12.8392 1.74459 13.2438 2.141 13.2526 2.79042C13.2614 3.36816 12.9403 3.92481 11.8276 3.92481H11.1591L11.1635 1.74459Z" fill="#2D3743"/>
<path d="M19.0183 0.850563H18.2883L15.1833 7.82559H16.2432L17.1536 5.78031H20.2278L21.1909 7.82559H22.2508L19.0183 0.850563ZM18.6357 2.37714L19.8012 4.88629H17.5538L18.6357 2.37714Z" fill="#2D3743"/>
<path d="M23.0073 0.892744V7.8256H24.0452V4.8104H25.1271C26.8028 4.8104 27.5636 3.9712 27.5636 2.8832C27.5636 1.78676 26.8423 0.888527 25.2635 0.888527H23.0073V0.892744ZM24.0496 1.78676H25.2679C26.2134 1.78676 26.4993 2.33498 26.4993 2.84524C26.4993 3.53684 25.9979 3.92903 25.2283 3.92903H24.0496V1.78676Z" fill="#2D3743"/>
<path d="M34.6049 0.892822H33.567V3.92489H29.5164V0.892822H28.4785V7.82568H29.5164L29.512 4.81048H33.5626L33.567 7.82568H34.6049V0.892822Z" fill="#2D3743"/>
<path d="M37.0853 0.892822H36.0474V7.82568H37.0853V0.892822Z" fill="#2D3743"/>
<path d="M42.1912 1.28918C41.6855 0.964469 41.1313 0.800003 40.5816 0.800003C39.2578 0.800003 38.387 1.52112 38.387 2.65129C38.387 4.55319 41.5139 4.71344 41.5139 6.14724C41.5139 6.53521 41.1445 7.02017 40.3397 7.02017C39.6272 7.02017 38.9587 6.66594 38.431 6.01229V7.2732C39.0335 7.71177 39.6712 7.91419 40.454 7.91419C41.6195 7.91419 42.4815 7.12138 42.4815 6.03338C42.4815 3.82786 39.3545 3.84894 39.3545 2.51635C39.3545 2.02717 39.8339 1.69402 40.498 1.69402C40.9862 1.69402 41.5799 1.85427 42.1956 2.41514V1.28918H42.1912Z" fill="#2D3743"/>
<path d="M43.0841 4.35921C43.0841 6.24002 44.5794 7.91841 46.9455 7.91841C49.3952 7.91841 50.8597 6.23158 50.8597 4.35921C50.8597 2.42779 49.3556 0.800003 46.9675 0.800003C44.619 0.800003 43.0841 2.43622 43.0841 4.35921ZM44.0913 4.35921C44.0913 2.83263 45.2875 1.71511 46.9016 1.71511C48.5244 1.71511 49.7207 2.83263 49.7207 4.35921C49.7207 5.87313 48.5244 7.0033 46.9016 7.0033C45.2919 7.0033 44.0913 5.87313 44.0913 4.35921Z" fill="#2D3743"/>
<path d="M60.5571 7.4967H60.6847V7.18042H60.7595C60.8562 7.18042 60.8914 7.21416 60.9925 7.37862L61.0629 7.4967H61.2168L61.1201 7.35332C61.0541 7.25211 61.0057 7.18886 60.9398 7.16777V7.16355C61.0717 7.15512 61.1597 7.07078 61.1597 6.94848C61.1597 6.86836 61.0937 6.7545 60.9046 6.7545H60.5615V7.4967H60.5571ZM60.6803 7.07921V6.85571H60.8826C60.9662 6.85571 61.0233 6.89788 61.0233 6.96535C61.0233 7.04126 60.9574 7.07921 60.8606 7.07921H60.6803ZM61.4763 7.11295C61.4763 7.43345 61.2037 7.69069 60.8738 7.69069C60.5396 7.69069 60.2713 7.42923 60.2713 7.11295C60.2713 6.79245 60.5396 6.53521 60.8738 6.53521C61.2037 6.53521 61.4763 6.79667 61.4763 7.11295ZM61.5951 7.11295C61.5951 6.72919 61.2696 6.42135 60.8694 6.42135C60.4692 6.42135 60.1481 6.72919 60.1481 7.11295C60.1481 7.4967 60.4692 7.80876 60.8694 7.80876C61.274 7.80876 61.5951 7.4967 61.5951 7.11295Z" fill="#2D3743"/>
<path d="M52.8431 1.78684V3.92489H55.6622V4.81048H52.8431V7.82568H51.8051V0.892822H61.6126V1.78684H59.1102V7.82568H58.0722V1.78684H52.8431Z" fill="#2D3743"/>
<path d="M0.160004 26.3469L5.48595 11.3848H7.46503L13.1384 26.3469H11.0494L9.43092 21.8136H3.63L2.1083 26.3469H0.160004ZM4.16216 20.2026H8.86359L7.41665 16.0573C6.97686 14.8006 6.64701 13.7632 6.43151 12.9535C6.25559 13.9108 6.00491 14.8638 5.68385 15.8127L4.16216 20.2026Z" fill="#2D3743"/>
<path d="M14.7304 26.3469V11.3847H20.8788C22.1146 11.3847 23.0558 11.5197 23.6979 11.7896C24.34 12.0595 24.8545 12.5318 25.2371 13.2149C25.6242 13.8939 25.8133 14.6488 25.8133 15.4711C25.8133 16.5338 25.4966 17.4278 24.8589 18.1531C24.2212 18.8827 23.2405 19.3423 21.9079 19.5405C22.3917 19.7936 22.7611 20.0424 23.0162 20.287C23.5527 20.8183 24.0585 21.4804 24.5379 22.2774L26.948 26.3511H24.639L22.8051 23.2389C22.2685 22.3407 21.8287 21.6533 21.4813 21.1768C21.1338 20.7002 20.8216 20.3671 20.5489 20.1773C20.2762 19.9876 19.9948 19.8526 19.7133 19.7809C19.5066 19.7345 19.1636 19.7092 18.693 19.7092H16.5644V26.3511H14.7304V26.3469ZM16.5644 17.9887H20.5093C21.3493 17.9887 22.0046 17.8959 22.4752 17.7061C22.9458 17.5206 23.3064 17.2212 23.5527 16.8079C23.799 16.3946 23.9222 15.9476 23.9222 15.4669C23.9222 14.7584 23.6847 14.1764 23.2053 13.721C22.7303 13.2656 21.9783 13.0378 20.9491 13.0378H16.5644V17.9887Z" fill="#2D3743"/>
<path d="M38.6819 21.1009L40.5158 21.6027C40.1332 23.2305 39.4383 24.4703 38.44 25.3222C37.4416 26.174 36.219 26.6042 34.7765 26.6042C33.2811 26.6042 32.0673 26.2752 31.1305 25.6216C30.1938 24.9637 29.4813 24.0149 28.9931 22.7709C28.505 21.5268 28.2587 20.19 28.2587 18.7604C28.2587 17.2043 28.5357 15.8422 29.0855 14.6825C29.6352 13.5228 30.4225 12.6415 31.4428 12.0384C32.4631 11.4354 33.5802 11.136 34.8072 11.136C36.1926 11.136 37.3625 11.5155 38.308 12.2788C39.2536 13.0421 39.9133 14.1132 40.2871 15.4922L38.4795 15.9519C38.1585 14.8639 37.6923 14.0711 37.081 13.5735C36.4697 13.0758 35.7 12.827 34.7721 12.827C33.7077 12.827 32.815 13.1011 32.0981 13.6536C31.3812 14.206 30.8799 14.944 30.5896 15.8718C30.2993 16.7995 30.1542 17.7568 30.1542 18.7436C30.1542 20.0171 30.3257 21.1262 30.6688 22.0751C31.0118 23.0239 31.5483 23.7324 32.2696 24.2047C32.9953 24.6728 33.7781 24.9089 34.6269 24.9089C35.6561 24.9089 36.5225 24.5884 37.2393 23.9516C37.9474 23.3064 38.4268 22.3576 38.6819 21.1009Z" fill="#2D3743"/>
<path d="M42.9302 26.3469V11.3847H44.7642V17.529H51.9725V11.3847H53.8064V26.3469H51.9725V19.2917H44.7642V26.3427H42.9302V26.3469Z" fill="#2D3743"/>
<path d="M57.272 26.3469V11.3847H59.1059V26.3469H57.272Z" fill="#2D3743"/>
<path d="M72.3306 21.1009L74.1645 21.6027C73.7775 23.2305 73.087 24.4703 72.0887 25.3222C71.0903 26.174 69.8677 26.6042 68.4252 26.6042C66.9299 26.6042 65.716 26.2752 64.7793 25.6216C63.8425 24.9637 63.13 24.0149 62.6419 22.7709C62.1537 21.5268 61.9074 20.19 61.9074 18.7604C61.9074 17.2043 62.1845 15.8422 62.7342 14.6825C63.284 13.5228 64.0712 12.6415 65.0871 12.0384C66.1075 11.4354 67.2289 11.136 68.4516 11.136C69.8369 11.136 71.0068 11.5155 71.9524 12.2788C72.8979 13.0421 73.5576 14.1132 73.9314 15.4922L72.1239 15.9519C71.8028 14.8639 71.3366 14.0711 70.7253 13.5735C70.114 13.0758 69.3444 12.827 68.4164 12.827C67.3521 12.827 66.4593 13.1011 65.7424 13.6536C65.0256 14.206 64.5242 14.944 64.2339 15.8718C63.9437 16.7995 63.7985 17.7568 63.7985 18.7436C63.7985 20.0171 63.97 21.1262 64.3131 22.0751C64.6561 23.0239 65.1927 23.7324 65.9139 24.2047C66.6396 24.6728 67.4224 24.9089 68.2713 24.9089C69.3004 24.9089 70.1712 24.5884 70.8836 23.9516C71.6005 23.3064 72.0799 22.3576 72.3306 21.1009Z" fill="#2D3743"/>
<path d="M75.0047 26.3469L80.3307 11.3847H82.3097L87.9831 26.3469H85.8941L84.2756 21.8135H78.4791L76.9574 26.3469H75.0047ZM79.0025 20.2026H83.7039L82.257 16.0572C81.8172 14.8006 81.4873 13.7632 81.2718 12.9535C81.0959 13.9108 80.8452 14.8638 80.5242 15.8127L79.0025 20.2026Z" fill="#2D3743"/>
<path d="M89.5444 26.3469V11.3847H94.3206C95.3981 11.3847 96.2205 11.4564 96.7878 11.5998C97.5839 11.798 98.2612 12.1565 98.8197 12.6709C99.5498 13.3372 100.1 14.1891 100.46 15.2265C100.821 16.2639 101.005 17.4489 101.005 18.7815C101.005 19.9159 100.882 20.9237 100.636 21.8009C100.39 22.678 100.073 23.4034 99.6905 23.9811C99.3035 24.5546 98.8857 25.0101 98.4283 25.339C97.9709 25.6679 97.4167 25.921 96.7746 26.0896C96.1281 26.2583 95.3849 26.3427 94.5449 26.3427H89.5444V26.3469ZM91.3783 24.5799H94.3382C95.2529 24.5799 95.9698 24.4872 96.4888 24.3058C97.0077 24.1203 97.4255 23.863 97.7334 23.5299C98.1688 23.0618 98.5074 22.4292 98.7493 21.6364C98.9912 20.8436 99.1144 19.8821 99.1144 18.752C99.1144 17.1874 98.8769 15.9856 98.4019 15.1421C97.9269 14.303 97.3464 13.7379 96.6647 13.4511C96.1721 13.2487 95.3805 13.1433 94.2898 13.1433H91.3783V24.5799Z" fill="#2D3743"/>
</svg>

<svg width="102" height="27" viewBox="0 0 102 27" fill="none" xmlns="http://www.w3.org/2000/svg"><path d="M8.908 4.41H6.48v.894h1.39v1.421c-.497.152-1.008.274-1.57.274-1.72 0-2.925-1.088-2.925-2.631 0-1.506 1.218-2.653 2.788-2.653.871 0 1.75.236 2.6.679V1.39C7.622.93 7.03.8 6.18.8 3.977.8 2.3 2.356 2.3 4.397c0 2.033 1.632 3.517 3.849 3.517 1.007 0 1.79-.164 2.758-.57V4.41zM10.222.893v6.933h1.038l-.004-3.016h.435c.532 0 .968.17 1.922 1.59l.955 1.426h1.24c-.497-.662-.678-.894-.985-1.37-.55-.865-.955-1.506-1.61-1.924.774-.295 1.21-.894 1.21-1.7 0-1.197-.911-1.943-2.376-1.943h-1.825v.004zm.942.852h.668c1.007 0 1.412.396 1.42 1.045.01.578-.312 1.135-1.424 1.135h-.669l.005-2.18z" fill="#2D3743"/><path d="M19.018.85h-.73l-3.105 6.976h1.06l.91-2.046h3.075l.963 2.046h1.06L19.018.85zm-.382 1.527l1.165 2.51h-2.247l1.082-2.51zM23.007.893v6.933h1.038V4.81h1.082c1.676 0 2.437-.839 2.437-1.927 0-1.096-.722-1.994-2.3-1.994h-2.257v.004zm1.043.894h1.218c.945 0 1.231.548 1.231 1.058 0 .692-.501 1.084-1.27 1.084h-1.18V1.787zM34.605.893h-1.038v3.032h-4.05V.893h-1.038v6.933h1.037l-.004-3.016h4.05l.005 3.016h1.038V.893zm2.48 0h-1.038v6.933h1.038V.893zm5.106.397a2.975 2.975 0 0 0-1.61-.49c-1.323 0-2.194.721-2.194 1.851 0 1.902 3.127 2.062 3.127 3.496 0 .388-.37.873-1.174.873-.713 0-1.381-.354-1.909-1.008v1.261c.602.439 1.24.641 2.023.641 1.166 0 2.027-.793 2.027-1.88 0-2.206-3.127-2.185-3.127-3.518 0-.489.48-.822 1.144-.822.488 0 1.082.16 1.698.721V1.29h-.005zm.893 3.07c0 1.88 1.495 3.558 3.861 3.558 2.45 0 3.915-1.686 3.915-3.559C50.86 2.428 49.356.8 46.968.8c-2.349 0-3.884 1.636-3.884 3.56zm1.007 0c0-1.527 1.197-2.645 2.81-2.645 1.623 0 2.82 1.118 2.82 2.644 0 1.514-1.197 2.644-2.82 2.644-1.61 0-2.81-1.13-2.81-2.644zm16.466 3.137h.128V7.18h.075c.096 0 .131.034.233.199l.07.118h.154l-.097-.144c-.066-.1-.114-.164-.18-.185v-.004c.132-.009.22-.093.22-.216 0-.08-.066-.194-.255-.194h-.343v.743h-.005zm.123-.418v-.223h.203c.083 0 .14.042.14.11 0 .075-.066.113-.162.113h-.18zm.796.034c0 .32-.272.578-.602.578a.591.591 0 0 1-.603-.578.59.59 0 0 1 .603-.578c.33 0 .602.262.602.578zm.12 0c0-.384-.326-.692-.727-.692-.4 0-.72.308-.72.692 0 .384.32.696.72.696a.71.71 0 0 0 .726-.696zm-8.753-5.326v2.138h2.82v.885h-2.82v3.016h-1.038V.893h9.808v.894H59.11v6.039h-1.038v-6.04h-5.229zM.16 26.347l5.326-14.962h1.979l5.673 14.962H11.05l-1.618-4.533H3.63l-1.522 4.533H.16zm4.002-6.144h4.702l-1.447-4.146c-.44-1.256-.77-2.294-.985-3.103a20.45 20.45 0 0 1-.748 2.859l-1.522 4.39zm10.568 6.144V11.385h6.149c1.236 0 2.177.135 2.819.405.642.27 1.157.742 1.54 1.425a4.49 4.49 0 0 1 .575 2.256c0 1.063-.316 1.957-.954 2.682-.638.73-1.619 1.19-2.951 1.388.484.253.853.501 1.108.746.537.531 1.043 1.193 1.522 1.99l2.41 4.074h-2.309l-1.834-3.112c-.537-.898-.976-1.586-1.324-2.062-.347-.477-.66-.81-.932-1a2.6 2.6 0 0 0-.836-.396c-.206-.046-.55-.072-1.02-.072h-2.129v6.642H14.73v-.004zm1.834-8.358h3.945c.84 0 1.496-.093 1.966-.283.47-.185.831-.485 1.078-.898.246-.413.37-.86.37-1.341 0-.709-.238-1.29-.718-1.746-.475-.455-1.227-.683-2.256-.683h-4.385v4.95zM38.682 21.1l1.834.503c-.383 1.627-1.078 2.867-2.076 3.72-.998.851-2.221 1.281-3.663 1.281-1.496 0-2.71-.329-3.646-.982-.937-.658-1.65-1.607-2.138-2.851s-.734-2.581-.734-4.01c0-1.557.277-2.919.826-4.079.55-1.16 1.337-2.04 2.358-2.644 1.02-.603 2.137-.902 3.364-.902 1.386 0 2.555.38 3.501 1.143.946.763 1.605 1.834 1.98 3.213l-1.808.46c-.322-1.088-.788-1.88-1.399-2.379-.611-.497-1.381-.746-2.309-.746-1.064 0-1.957.274-2.674.827-.717.552-1.218 1.29-1.508 2.218a9.56 9.56 0 0 0-.436 2.872c0 1.273.172 2.382.515 3.331.343.949.88 1.657 1.6 2.13a4.261 4.261 0 0 0 2.358.704c1.03 0 1.895-.32 2.612-.957.708-.646 1.188-1.594 1.443-2.851zm4.248 5.247V11.385h1.834v6.144h7.208v-6.144h1.834v14.962h-1.834v-7.055h-7.208v7.05H42.93v.005zm14.342 0V11.385h1.834v14.962h-1.834zM72.33 21.1l1.835.503c-.388 1.627-1.078 2.867-2.076 3.72-.999.851-2.221 1.281-3.664 1.281-1.495 0-2.709-.329-3.646-.982-.936-.658-1.649-1.607-2.137-2.851s-.735-2.581-.735-4.01c0-1.557.278-2.919.827-4.079.55-1.16 1.337-2.04 2.353-2.644a6.49 6.49 0 0 1 3.365-.902c1.385 0 2.555.38 3.5 1.143.946.763 1.606 1.834 1.98 3.213l-1.808.46c-.321-1.088-.787-1.88-1.399-2.379-.611-.497-1.38-.746-2.309-.746-1.064 0-1.957.274-2.674.827-.716.552-1.218 1.29-1.508 2.218a9.563 9.563 0 0 0-.435 2.872c0 1.273.171 2.382.514 3.331.343.949.88 1.657 1.6 2.13a4.261 4.261 0 0 0 2.358.704c1.03 0 1.9-.32 2.613-.957.716-.646 1.196-1.594 1.447-2.851zm2.675 5.247l5.326-14.962h1.979l5.673 14.962h-2.089l-1.618-4.534h-5.797l-1.522 4.534h-1.952zm3.998-6.144h4.7l-1.446-4.146c-.44-1.256-.77-2.294-.985-3.103-.176.957-.427 1.91-.748 2.859l-1.522 4.39zm10.541 6.144V11.385h4.777c1.077 0 1.9.071 2.467.215a4.575 4.575 0 0 1 2.032 1.07c.73.667 1.28 1.52 1.64 2.556.361 1.038.545 2.223.545 3.556 0 1.134-.123 2.142-.369 3.019-.246.877-.563 1.602-.945 2.18-.388.574-.805 1.03-1.263 1.358-.457.329-1.011.582-1.653.75-.647.17-1.39.254-2.23.254h-5v.004zm1.834-1.767h2.96c.915 0 1.632-.093 2.15-.274.52-.186.938-.443 1.245-.776.436-.468.774-1.1 1.016-1.894.242-.792.365-1.754.365-2.884 0-1.565-.237-2.766-.712-3.61-.475-.839-1.056-1.404-1.737-1.69-.493-.203-1.285-.309-2.375-.309h-2.912V24.58z" fill="#2D3743"/></svg>
